X: 1
T:the Northern Lass
M:6/8
O:England
A:North-West
R:Slow air
K:Am
A2B c2d| e>de g3| d2e g2e| d>BA G3|\
A2B c2d| e>fg a_ba| ge2 g/e/d/B/c A3-A2:|
g2a _b2a| ge2 g3| d2e g2e| d>BA G3| \
g2a _b2a| ge2 g3| e2d ef/g/a| g3-g3|
a3 _b2a| ge2 g3| d2e g2e| d>BA G3|\
A2B c2d| e>fg a_ba| ge2 g/e/d/B/c| A3-A3|]
